website/static/img/icons/white/pencil-paper.svg

<svg fill="none" height="28" viewBox="0 0 28 28" width="28" xmlns="http://www.w3.org/2000/svg"><path d="m25.6005 10.2904v11.8359c0 3.0454-2.4688 5.5142-5.5142 5.5142h-13.78548c-3.04541 0-5.514199-2.4688-5.514199-5.5142v-13.78551c0-3.04541 2.468789-5.5142 5.514199-5.5142h4.13568c.7613 0 1.3785.6172 1.3785 1.37855s-.6172 1.37855-1.3785 1.37855h-4.13568c-1.5227 0-2.7571 1.2344-2.7571 2.7571v13.78551c0 1.5227 1.2344 2.7571 2.7571 2.7571h13.78548c1.5227 0 2.7571-1.2344 2.7571-2.7571v-9.0788l-6.3217 6.3217h-5.9474c-.83746 0-1.51638-.6789-1.51638-1.5164v-5.9474l10.45738-10.45736c1.0767-1.076716 2.8224-1.076716 3.8991 0l3.5647 3.56464c1.0767 1.07671 1.0767 2.82241 0 3.89913zm-10.2208 6.3217 9.6498-9.64986-3.5646-3.56464-9.6499 9.6499v3.5646z" fill="#fff"/></svg>

<svg width="28" height="28" viewBox="0 0 28 28" fill="none" xmlns="http://www.w3.org/2000/svg">
<path d="M25.6005 10.2904V22.1263C25.6005 25.1717 23.1317 27.6405 20.0863 27.6405H6.30082C3.25541 27.6405 0.786621 25.1717 0.786621 22.1263V8.34079C0.786621 5.29538 3.25541 2.82659 6.30082 2.82659H10.4365C11.1978 2.82659 11.815 3.44379 11.815 4.20514C11.815 4.96649 11.1978 5.58369 10.4365 5.58369H6.30082C4.77812 5.58369 3.54372 6.81809 3.54372 8.34079V22.1263C3.54372 23.649 4.77812 24.8834 6.30082 24.8834H20.0863C21.609 24.8834 22.8434 23.649 22.8434 22.1263V13.0475L16.5217 19.3692H10.5743C9.73684 19.3692 9.05792 18.6903 9.05792 17.8528V11.9054L19.5153 1.44804C20.592 0.371324 22.3377 0.371324 23.4144 1.44804L26.9791 5.01268C28.0558 6.08939 28.0558 7.83509 26.9791 8.91181L25.6005 10.2904ZM15.3797 16.6121L25.0295 6.96224L21.4649 3.3976L11.815 13.0475V16.6121H15.3797Z" fill="white"/>
</svg>
